icons/triangle-star.svg

<svg xmlns="http://www.w3.org/2000/svg" width="24" height="24" viewBox="0 0 24 24">
  <path d="M9.37135227,3.70432092 C10.1698214,2.25255887 11.9939942,1.72296031 13.4457562,2.52142944 C13.9442354,2.79559297 14.3544842,3.20584177 14.6286477,3.70432092 L14.6286477,3.70432092 L22.2461053,17.5542438 C23.0445744,19.0060058 22.5149759,20.8301786 21.0632138,21.6286477 C20.6202789,21.8722619 20.1229665,22 19.6174576,22 L19.6174576,22 L4.38254244,22 C2.72568819,22 1.38254244,20.6568542 1.38254244,19 C1.38254244,18.4944911 1.5102805,17.9971787 1.75389472,17.5542438 L1.75389472,17.5542438 Z M12.2212829,11.1814077 C11.973656,11.0591965 11.6738431,11.160866 11.551632,11.4084929 L11.551632,11.4084929 L10.6774832,13.1797118 L8.72282709,13.4637399 C8.61400857,13.4795522 8.51343737,13.5307958 8.43668307,13.6095376 C8.24393246,13.8072794 8.24797861,14.123836 8.4457204,14.3165866 L8.4457204,14.3165866 L9.86012284,15.6952882 L9.52622772,17.6420462 C9.50763929,17.750425 9.52529663,17.861909 9.57646617,17.9592393 C9.70496657,18.2036616 10.0072801,18.2976348 10.2517024,18.1691344 L10.2517024,18.1691344 L12,17.25 L13.7482976,18.1691344 C13.8456278,18.220304 13.9571118,18.2379613 14.0654907,18.2193729 C14.3376589,18.1726924 14.5204528,17.9142144 14.4737723,17.6420462 L14.4737723,17.6420462 L14.1398772,15.6952882 L15.5542796,14.3165866 C15.6330214,14.2398323 15.684265,14.1392611 15.7000773,14.0304426 C15.7397861,13.7571702 15.5504453,13.5034487 15.2771729,13.4637399 L15.2771729,13.4637399 L13.3225168,13.1797118 L12.448368,11.4084929 C12.3997029,11.3098866 12.3198892,11.2300728 12.2212829,11.1814077 Z"/>
</svg>

<svg xmlns="http://www.w3.org/2000/svg" viewBox="0 0 24 24">
  <path d="M9.37 3.7a3 3 0 0 1 5.26 0l7.62 13.85A3 3 0 0 1 19.62 22H4.38a3 3 0 0 1-2.63-4.45zm2.85 7.48a.5.5 0 0 0-.67.23l-.87 1.77-1.96.28a.5.5 0 0 0-.27.86l1.41 1.38-.33 1.94a.5.5 0 0 0 .72.53l1.75-.92 1.75.92a.5.5 0 0 0 .72-.53l-.33-1.94 1.41-1.38a.5.5 0 0 0-.27-.86l-1.96-.28-.87-1.77a.5.5 0 0 0-.23-.23z"/>
</svg>
